!!!OTL: Little Cory	
!! From: "Folk Songs of the Southern Appalachians;
!! As Sung by Jean Ritchie"  2nd Edition.
!! University of Kentucky Press, 1997.
**kern	**silbe
*clefG2	*
*k[f#c#g#]	*
*M2/4	*
{4e	Wake
=1	=
4.a	up,
8a	wake
=2	=
4a	up
8b	lit-
8b	-tle
=3	=
8cc#	Co-
4e}	-ry,
{(16e	What
16f#)	.
=4	=
4a	makes
4e	you
=5	=
(8c#	sleep
8B)	.
(8c#	so
8B)	.
=6	=
2A}	sound?
=7	=
4r	.
{8A	When
8A	the
=8	=
4.d	mar-
8d	-shalls
=9	=
4d	are
(8e	a-
8f#)	.
=10	=
8f#	-com-
4.e}	-in',
=11	=
4r	.
{8e	Gon-
8f#	-na
=12	=
4a	tear
4e	your
=13	=
(8c#	still-
8B)	.
(8c#	-house
8B)	.
=14	=
4A}	down
4r	.
=15	=
4r	.
==	==
*-	*-
